packages/tokens/icons/unidirectional/size32Px.svg

<svg xmlns="http://www.w3.org/2000/svg" fill="none" viewBox="0 0 32 32" width="1em" height="1em"><path stroke="currentColor" stroke-linecap="round" stroke-linejoin="round" d="m8.5 15.5-6 6 6 6"/><path stroke="currentColor" stroke-linecap="round" d="M2.5 21.5h27m-17-4 8 8m0-8-8 8"/><path stroke="currentColor" stroke-linecap="round" stroke-linejoin="round" d="m23.5 4.5 6 6-6 6"/><path stroke="currentColor" stroke-linecap="round" d="M29.5 10.5h-27"/></svg>

<svg viewBox="0 0 32 32" fill="none" xmlns="http://www.w3.org/2000/svg" width="1em" height="1em"><path d="M8.5 15.5L2.5 21.5L8.5 27.5" stroke="currentColor" stroke-linecap="round" stroke-linejoin="round"/><path d="M2.5 21.5L29.5 21.5" stroke="currentColor" stroke-linecap="round"/><path d="M12.5 17.5L20.5 25.5M20.5 17.5L12.5 25.5" stroke="currentColor" stroke-linecap="round"/><path d="M23.5 4.5L29.5 10.5L23.5 16.5" stroke="currentColor" stroke-linecap="round" stroke-linejoin="round"/><path d="M29.5 10.5L2.5 10.5" stroke="currentColor" stroke-linecap="round"/></svg>
